src/actions/24/gnumeric-row-size.svg

<svg xmlns="http://www.w3.org/2000/svg" viewBox="0 0 24 24">
    <path d="M12 4 9 8h2v2H4v4h7v2H9l3 4 3-4h-2v-2h7v-4h-7V8h2l-3-4zm-7 7h2v2H5v-2zm3 0h2v2H8v-2zm3 0h2v2h-2v-2zm3 0h2v2h-2v-2zm3 0h2v2h-2v-2z" style="fill:currentColor;fill-opacity:1;stroke:none;color:#050505;opacity:.7"/>
</svg>

<svg xmlns="http://www.w3.org/2000/svg" viewBox="0 0 24 24">
  <defs id="defs3051">
    <style type="text/css" id="current-color-scheme">
      .ColorScheme-Text {
        color:#363636;
      }
      </style>
  </defs>
 <path style="fill:currentColor;fill-opacity:1;stroke:none" 
     d="M 12 4 L 9 8 L 11 8 L 11 9 L 11 10 L 4 10 L 4 11 L 4 13 L 4 14 L 5 14 L 11 14 L 11 15 L 11 16 L 9 16 L 12 20 L 15 16 L 13 16 L 13 15 L 13 14 L 19 14 L 20 14 L 20 13 L 20 11 L 20 10 L 19 10 L 13 10 L 13 9 L 13 8 L 15 8 L 12 4 z M 5 11 L 7 11 L 7 13 L 5 13 L 5 11 z M 8 11 L 10 11 L 10 13 L 8 13 L 8 11 z M 11 11 L 13 11 L 13 13 L 11 13 L 11 11 z M 14 11 L 16 11 L 16 13 L 14 13 L 14 11 z M 17 11 L 19 11 L 19 13 L 17 13 L 17 11 z "
     class="ColorScheme-Text"
     />
</svg>
